X: 30
T: No_37_The_Sun-Youth_Has_Risen_in_the_East.krn
N: Derived from No_37_The_Sun-Youth_Has_Risen_in_the_East.krn
%%abc-version 2.0
%%abcx-abcm2ps-target-version 5.9.1 (29 Sep 2008)
%%abc-creator hum2abc beta
%%abcx-conversion-date 2019/03/15 08:25:35
%%humdrum-veritas 2297477208
%%humdrum-veritas-data 215398791
%%linebreak <none>
%%barnumbers 0
L: 1/8
M: 2/4
K: F clef=bass
[K:clef=bass][M:2/4]G,/F,/F, G,/F,3/ | 
G,/F,/F, F,F, | 
F,F, G,/F,/F, | 
CD/C/ D/C/B,/A,/ | 
[M:3/4]B,B, B,B, G,/F,/F, | 
[M:2/4]B,B, B,A, | 
B,B, B,B,/ z/ | 
B,B, _A,A, | 
B,B, _A,A, | 
B,B, C/B,/A,3//A,// | 
[M:3/4]B,2B,B,/ z/ B,B, | 
[M:2/4]DD C/B,/B, | 
B,/B,3/ B,B, | 
[M:3/4]C/B,/B, CC B,3/B,/ | 
[M:5/8]C/B,/B,B,B, z | 
[M:2/4]B,B, B,B, | 
B,2G,/F,/F, | 
CD/C/ D/C/B,/A,/ | 
[M:3/4]B,B, B,B, G,/F,/F, | 
[M:2/4]B,B, B,A, | 
B,B, B,B,/ z/ | 
B,B, _A,A, | 
B,B, _A,A, | 
B,B, C/B,/A,3//A,// | 
[M:3/4]B,2B,B, B,B, | 
[M:2/4]DD C/B,/B, | 
B,/B,3/ B,B, | 
[M:3/4]C/B,/B, CC B,3/B,/ | 
C/B,/B, B,B, B,B, | 
B,B, B,B,/ z// B,//C2 ||  
 [K:Db] FF FF F/E/E/D/ [I:setbarnb 32]| 
E/B,/B, B,B, F/E/E/D/ | 
DD/A,/ B,B,3//A,// B,B,/ z/ | 
[M:2/4]FD3//D//F2 | 
F/E/E E/D/D | 
[M:3/4]DB,/B,/ B,/A,/A, B,B,/ z/ | 
[M:2/4]EB,3//B,//E2 | 
[M:3/4]DD D (3E/D/B,/ B,/A,3/ | 
E/D/D DD3//B,// D/B,3/ | 
[M:2/4]B,//A,3//A, A,A, | 
A,/F,/F, F, z | 
A,F,z2 | 
[M:3/4]F,F, F, z/ B,/C2 :|]  
[M:2/4]B,//A,3//A, A,A,/ z/ | 
A,/F,/F,3//F,//F,2 | 
A,/F,/F, F,/F,/F, | 
F,F, F,F, | 
A,/F,/F, B,B, | 
B,2B,B, | 
A,/F,/F, B,B,/A,/ | 
B,2B,B, | 
[M:3/4]DD/B,/ B,B, B,3/B,/ | 
D/B,/B, B,B, z B, | 
[M:7/8]B,B,B,2B,3/D/D | 
[M:3/4]FF FF F/E/E/D/ | 
E/B,/B, B,B, F/E/E/B,/ | 
DD3//A,// B,B,3//A,// B,B,/ z/ | 
[M:2/4]FD3//D//F2 | 
F/E/E E/D/D | 
[M:3/4]D/B,/B, B,/A,/A, B,B,/ z/ | 
[M:2/4]EB,3//B,//E2 | 
[M:3/4]DD D (3E/D/B,/ B,/A,3/ | 
E/D/D DD3//B,// D/B,3/ | 
[M:2/4]B,//A,3//A, A,A,/ z/ | 
B,A,3//A,// A,A, | 
A,/F,/F, F, z | 
A,F,z2 | 
F,F,F,2 |]  



